images/tables.svg

<?xml version="1.0" encoding="UTF-8"?>
<svg width="24px" height="24px" viewBox="0 0 24 24" version="1.1" xmlns="http://www.w3.org/2000/svg" xmlns:xlink="http://www.w3.org/1999/xlink">
    <title>nav/icon copy</title>
    <defs>
        <path d="M24,17.9998 L24,23.5998 C24,23.821 23.8208,23.9998 23.6,23.9998 L23.6,23.9998 L16.4,23.9998 L16.4,17.9998 L24,17.9998 Z M15.6,17.99996 L15.6,23.99996 L8.4,23.99996 L8.4,17.99996 L15.6,17.99996 Z M7.6,17.9998 L7.6,23.9998 L0.4,23.9998 C0.1792,23.9998 0,23.821 0,23.5998 L0,23.5998 L0,17.9998 L7.6,17.9998 Z M15.6,11.99996 L15.6,17.19996 L8.4,17.19996 L8.4,11.99996 L15.6,11.99996 Z M7.6,11.99996 L7.6,17.19996 L0,17.19996 L0,11.99996 L7.6,11.99996 Z M24,11.99996 L24,17.19996 L16.4,17.19996 L16.4,11.99996 L24,11.99996 Z M24,5.99996 L24,11.20036 L16.4,11.20036 L16.4,5.99996 L24,5.99996 Z M7.6,5.99996 L7.6,11.20036 L0,11.20036 L0,5.99996 L7.6,5.99996 Z M15.6,5.99996 L15.6,11.19996 L8.4,11.19996 L8.4,5.99996 L15.6,5.99996 Z M23.6,0 C23.8208,0 24,0.1792 24,0.4 L24,0.4 L24,5.2 L0,5.2 L0,0.4 C0,0.1792 0.1792,0 0.4,0 L0.4,0 Z" id="path-1"></path>
    </defs>
    <g id="Page-1" stroke="none" stroke-width="1" fill="none" fill-rule="evenodd">
        <g id="Desktop-HD" transform="translate(-20.000000, -181.000000)">
            <g id="color/light-orange" transform="translate(20.000000, 181.000000)">
                <mask id="mask-2" fill="white">
                    <use xlink:href="#path-1"></use>
                </mask>
                <use id="Mask" fill="#000000" xlink:href="#path-1"></use>
                <g id="Group" mask="url(#mask-2)" fill="#DBE5FF">
                    <g id="color/white">
                        <rect id="Rectangle-Copy-2" x="0" y="0" width="24" height="24"></rect>
                    </g>
                </g>
            </g>
        </g>
    </g>
</svg>

<svg xmlns="http://www.w3.org/2000/svg" xmlns:xlink="http://www.w3.org/1999/xlink" width="24" height="24" xmlns:v="https://vecta.io/nano"><defs><path d="M24 18v5.6a.4.4 0 0 1-.4.4h0-7.2v-6H24zm-8.4 0v6H8.4v-6h7.2zm-8 0v6H.4a.4.4 0 0 1-.4-.4h0V18h7.6zm8-6v5.2H8.4V12h7.2zm-8 0v5.2H0V12h7.6zM24 12v5.2h-7.6V12H24zm0-6v5.2h-7.6V6H24zM7.6 6v5.2H0V6h7.6zm8 0v5.2H8.4V6h7.2zm8-6a.4.4 0 0 1 .4.4h0v4.8H0V.4A.4.4 0 0 1 .4 0h0z" id="A"/></defs><g fill-rule="evenodd"><mask id="B" fill="#fff"><use xlink:href="#A"/></mask><use fill="#000" xlink:href="#A"/><g mask="url(#B)" fill="#dbe5ff"><path d="M0 0h24v24H0z"/></g></g></svg>
